assets/svg/icon-ui-eyeball-dark-gray.svg

<?xml version="1.0" encoding="UTF-8" standalone="no"?>
<svg width="51px" height="31px" viewBox="0 0 51 31" version="1.1" xmlns="http://www.w3.org/2000/svg" xmlns:xlink="http://www.w3.org/1999/xlink">
    <!-- Generator: Sketch 3.8.3 (29802) - http://www.bohemiancoding.com/sketch -->
    <title>dark gray/icon-ui-eyeball-dark-gray</title>
    <desc>Created with Sketch.</desc>
    <defs></defs>
    <g id="gray" stroke="none" stroke-width="1" fill="none" fill-rule="evenodd">
        <g id="icons,-utility-(gray)" transform="translate(-409.000000, -237.000000)" fill="#242F36">
            <g id="dark-gray/icon-ui-eyeball-dark-gray" transform="translate(409.000000, 237.000000)">
                <g id="Fill-14">
                    <g id="PaaS">
                        <g id="products">
                            <g id="Products">
                                <g id="PaaS">
                                    <g id="Features">
                                        <g id="PaaS-List">
                                            <g id="Monitoring">
                                                <g id="Eye">
                                                    <path d="M49.6197917,13.686389 C45.6474835,9.60793926 36.2110243,0 25.1600614,0 C14.298855,0 4.73344512,9.63179699 0.712911693,13.7022941 C-0.232726157,14.660274 -0.239016431,16.3144105 0.702427901,17.2785078 C4.68312291,21.3575693 14.1358321,30.9679555 25.1600614,30.9679555 C36.0495741,30.9679555 45.5976854,21.3392172 49.609832,17.2668848 C50.5549456,16.3089049 50.5601875,14.6523215 49.6197917,13.686389 L49.6197917,13.686389 Z M25.1233681,27.5202065 C19.4778472,27.5202065 14.9021971,22.1797436 14.9021971,15.5913376 C14.9021971,9.00231974 19.4778472,3.66246864 25.1233681,3.66246864 C30.7694132,3.66246864 35.3450634,9.00231974 35.3450634,15.5913376 C35.3450634,22.1797436 30.7694132,27.5202065 25.1233681,27.5202065 L25.1233681,27.5202065 Z M27.8286961,15.0291514 C25.9620573,15.0291514 24.4471497,13.2624553 24.4471497,11.0822251 C24.4471497,9.84284621 24.9372668,8.7392729 25.7031077,8.01497645 C25.4378678,7.97827222 25.1721037,7.9525793 24.8984768,7.9525793 C21.2805209,7.9525793 18.3466323,11.3758588 18.3466323,15.5986784 C18.3466323,19.8221097 21.2805209,23.246001 24.8984768,23.246001 C28.5174811,23.246001 31.4508455,19.8221097 31.4508455,15.5986784 C31.4508455,14.5477145 31.2689518,13.5456895 30.9397608,12.6342015 C30.4229099,14.0418081 29.2251369,15.0291514 27.8286961,15.0291514 L27.8286961,15.0291514 Z" id="Fill-14"></path>
                                                </g>
                                            </g>
                                        </g>
                                    </g>
                                </g>
                            </g>
                        </g>
                    </g>
                </g>
            </g>
        </g>
    </g>
</svg>

<svg width="51" height="31" viewBox="0 0 51 31" xmlns="http://www.w3.org/2000/svg"><title>dark gray/icon-ui-eyeball-dark-gray</title><path d="M49.62 13.686C45.647 9.608 36.21 0 25.16 0 14.3 0 4.733 9.632.713 13.702c-.946.958-.952 2.612-.01 3.577 3.98 4.079 13.433 13.689 24.457 13.689 10.89 0 20.438-9.629 24.45-13.701.945-.958.95-2.615.01-3.58zM25.123 27.52c-5.645 0-10.22-5.34-10.22-11.929s4.575-11.929 10.22-11.929c5.646 0 10.222 5.34 10.222 11.93 0 6.588-4.576 11.928-10.222 11.928zm2.706-12.49c-1.867 0-3.382-1.768-3.382-3.948 0-1.24.49-2.343 1.256-3.067a5.836 5.836 0 0 0-.805-.062c-3.617 0-6.551 3.423-6.551 7.646s2.934 7.647 6.551 7.647c3.62 0 6.553-3.424 6.553-7.647a8.727 8.727 0 0 0-.511-2.965c-.517 1.408-1.715 2.395-3.111 2.395z" fill="#242F36" fill-rule="evenodd"/></svg>
